X:194
T: Die Mordeltern
N: Q0085j
O: Mitteleuropa, Deutschland (DDR) , Thueringen
R: Ballade, Habgier, Mord, Reue, Selbstmord
M: 3/4
L: 1/8
K: G
D | DBB2AG | AAA3
D | Dcc2BA | GBB3
G | Gdd3B | cee3
g | fed2GB | A2G3

